public/images/icons/unpin.svg

<svg width="21" height="20" viewBox="0 0 21 20" fill="none" xmlns="http://www.w3.org/2000/svg">
<path fill-rule="evenodd" clip-rule="evenodd" d="M5.77661 6.30918C4.94742 6.38631 3.96464 6.69858 2.95973 7.50939C2.82499 7.61764 2.71456 7.75304 2.63563 7.90679C2.5567 8.06054 2.51103 8.22918 2.50159 8.40175C2.49216 8.57433 2.51917 8.74695 2.58088 8.90839C2.64258 9.06982 2.73759 9.21646 2.85972 9.33874L6.57534 13.0544L3.29359 16.3338C3.17812 16.4493 3.11324 16.6059 3.11324 16.7692C3.11324 16.9325 3.17812 17.0891 3.29359 17.2046C3.40907 17.3201 3.56569 17.385 3.72901 17.385C3.89232 17.385 4.04894 17.3201 4.16442 17.2046L7.44386 13.9229L11.1564 17.6393C11.2707 17.7537 11.4065 17.8444 11.5559 17.9063C11.7053 17.9682 11.8655 18.0001 12.0272 18.0001H12.1142C12.2901 17.988 12.4614 17.9382 12.6164 17.8539C12.7713 17.7696 12.9062 17.6528 13.0119 17.5116C13.7862 16.4822 14.1255 15.5515 14.2251 14.7577L5.77661 6.30918ZM14.114 12.8081L18.1399 8.7687C18.3705 8.5378 18.4999 8.22479 18.4998 7.89849C18.4996 7.57219 18.3699 7.2593 18.1391 7.02859L13.4704 2.36061C13.3561 2.24628 13.2204 2.15559 13.071 2.09372C12.9217 2.03185 12.7616 2 12.6 2C12.4383 2 12.2782 2.03185 12.1289 2.09372C11.9795 2.15559 11.8438 2.24628 11.7295 2.36061L7.70515 6.39924L14.114 12.8081Z" fill="#24272A"/>
<line x1="4.523" y1="2.38013" x2="17.3408" y2="15.1979" stroke="#24272A" stroke-width="1.3" stroke-linecap="round"/>
</svg>

<svg xmlns="http://www.w3.org/2000/svg" width="21" height="20" fill="none" viewBox="0 0 21 20"><path fill="#24272A" fill-rule="evenodd" d="M5.777 6.31c-.83.076-1.812.389-2.817 1.2a1.23 1.23 0 0 0-.1 1.829l3.715 3.715-3.281 3.28a.616.616 0 0 0 .87.87l3.28-3.281 3.712 3.716a1.23 1.23 0 0 0 .871.361h.087a1.23 1.23 0 0 0 .898-.488c.774-1.03 1.114-1.96 1.213-2.754zm8.337 6.498 4.026-4.04a1.23 1.23 0 0 0 0-1.74l-4.67-4.667a1.23 1.23 0 0 0-1.74 0L7.704 6.399z" clip-rule="evenodd"/><path stroke="#24272A" stroke-linecap="round" stroke-width="1.3" d="m4.523 2.38 12.818 12.818"/></svg>
